X: 30403
T: Old Stage, The
R: slide
M: 12/8
K: Dmajor
f2e|:d2B BdB ABA AFA|BcB BAB g3 f2e|
d2B BdB ABA AFA|1 Bcd e>dc d2e f2e:|2 Bcd e>dc d3 d2A||
|:d2e f2g a2f a2f|d2e f2g a3 a3|
bgb afa geg f2e|d2B BAB g3 f2e:|

